X:186
T:Wild Irishman (r)
B:NFID.106b
186wild_i
S:SD
L:1/8
M:C
R:reel
Q:360
K:A=G
edcB A2 (3cBA|eA (3cBA e3f|edcB ABce|1 f2ge d3|2 f2ge d2Bc||
defd gefd|dged cABc|defd gefd|gage d2Bc|
defd gefd|dged cABc|defg a2ag|(3fga ec dcdg||

%%%

